img/dark/f4.svg

<?xml version="1.0" encoding="UTF-8"?>
<svg width="24px" height="24px" viewBox="0 0 24 24" version="1.1" xmlns="http://www.w3.org/2000/svg" xmlns:xlink="http://www.w3.org/1999/xlink">
    <!-- Generator: Sketch 60.1 (88133) - https://sketch.com -->
    <title>f4_dark</title>
    <desc>Created with Sketch.</desc>
    <g id="f4_dark" stroke="none" stroke-width="1" fill="none" fill-rule="evenodd">
        <path d="M9.13516956,3 L3,3 L3,21 L9.57142857,21 L9.571,14.957 L11.9989326,18.1375725 L14.428,14.955 L14.4282452,21 L21,21 L21,3 L14.8646291,3 L11.999,7.733 L9.13516956,3 Z M19,5 L19,19 L16.428,19 L16.4282452,9.04316697 L11.998,14.842 L7.57142857,9.04216038 L7.571,19 L5,19 L5,5 L8.007,5 L11.9989196,11.5964056 L15.991,5 L19,5 Z" id="路径" fill="#FFFFFF"></path>
    </g>
</svg>

<svg xmlns="http://www.w3.org/2000/svg" width="24" height="24" xmlns:v="https://vecta.io/nano"><path d="M9.135 3H3v18h6.57v-6.043L12 18.138l2.43-3.183V21H21V3h-6.135L12 7.733 9.135 3zM19 5v14h-2.572V9.043l-4.43 5.8-4.427-5.8V19H5V5h3.007L12 11.596 15.99 5H19z" fill="#fff" fill-rule="evenodd"/></svg>
